X:1
T:B. D. Ackley
T:James Rowe
T:He Loves Everybody
%%score { ( 1 2 ) | ( 3 4 ) }
L:1/8
M:4/4
K:G
V:1 treble 
V:2 treble 
V:3 bass 
V:4 bass 
V:1
{/x} DDGA BBBc | d^cde d4 | cBAc BAGB | AGFE D4 | DDGA BBBc | d^cde d4 | ^cccc cABc | e4 d4 | %8
w: In the hour of troub\- le, it is|sweet to have a friend,|Some one who is al\- ways glad a|help\- ing hand to lend;|One up\- on whose faith\- ful\- ness we|ev\- er may de\- pend;|Such a friend is al\- ways found in|Je\- sus.|
w: When the storm is sweep\- ing, and the|world seems most un\- just,|When some great mis\- for\- tune comes and|fail you think you must,|There's a strong De\- fend\- er we my|safe\- ly, sure\- ly trust;|Such a friend is al\- ways found in|Je\- sus.|
w: When our souls are tempt\- ed, when we|reach the sink\- ing sand,|And our hearts are long\- ing for a|kind, up\- lift\- ing hand|Look\- ing for a Help\- er who will|give us strength to stand;|Such a friend is al\- ways found in|Je\- sus.|
"^Chorus" d2 d2 edGA | B2 c2 B4 | A2 A2 dcBA | G2 e2 d4 | d2 d2 edcB | d2 c2 e4 | d2 ^c2 edB=c | %15
w: He loves ev\- 'ry\- bod\- y,|He loves you;|He loves ev\- 'ry\- bod\- y,|you should too;|There will nev\- er be a|friend more true;|He loves ev\- 'ry\- bod\- y,|
w: |||||||
w: |||||||
 B2 A2 G4 |] %16
w: He loves you.|
w: |
w: |
V:2
 B,B,DD GGGG | GGGG G4 | AGFA GDDD | DDD^C (A,2 =C2) | B,B,DD GGGG | GGGG G4 | GGGG GGGG | G4 F4 | %8
 G2 G2 GGGG | G2 G2 G4 | F2 F2 FFFD | D2 G2 G4 | G2 G2 ^GBAG | B2 A2 G4 | G2 G2 GGGG | F2 D2 D4 |] %16
V:3
 G,G,B,C DDDA, | B,^A,B,C B,4 | DDDD DCB,G, | A,B,A,G, F,4 | G,G,B,C DDDA, | B,^A,B,C B,4 | %6
 A,A,A,A, E^CDE | ^C4 D4 | B,2 B,2 CB,B,C | D2 E2 D4 | D2 D2 A,EDC | B,2 C2 B,4 | B,2 B,2 B,EEE | %13
 E2 E2 (C2 ^A,2) | B,2 ^A,2 B,B,DE | D2 C2 B,4 |] %16
V:4
 G,G,G,G, G,G,G,G, | G,G,G,G, G,4 | D,D,D,D, G,G,G,G, | F,G,A,A,, D,4 | G,G,G,G, G,G,G,G, | %5
 G,G,G,G, G,4 | E,E,E,E, A,A,A,A, | A,4 D,4 | G,2 G,2 G,G,G,G, | G,2 G,2 G,4 | D,2 D,2 D,D,D,D, | %11
 G,2 G,2 G,4 | G,2 G,2 E,E,E,E, | A,2 A,2 (C,2 ^C,2) | D,2 =F,2 D,D,D,D, | D,2 D,2 G,4 |] %16

